!!!SOCIAL_FUNCTION:	miscellaneous songs
!!!PDT:	1957
!!!OTL: No_7_Song_When_Going_for_a_Drink_of_Medicine.krn
!!!LING_GROUP: Keresan
!!!LANG: Tone
!!!REG: Southwest
**kern
*staff1
=1-
*clefF4
*k[]
*M3/4
2r
16c\LL
16A\J
8A\J
=2
8c\L
8c\J
8c\L
8c\J
8A\L
8A\J
=3
8c\L
8c\J
8c\L
8c\J
16e\LL
16d\
16d\
16c\JJ
=4
16e\LL
16d\J
8c\J
8c\L
8c\J
8A\L
8A\J
=5
8A\L
8G\J
8G\
8r
16c\LL
16A\J
8A\J
=6
8c\L
8c\J
8c\L
8c\J
8A\L
8A\J
=7
8c\L
8c\J
8c\L
8c\J
16e\LL
16d\
16d\
16c\JJ
=8
16e\LL
16d\J
8c\J
8c\L
8c\J
8A\L
8A\J
=9
8A\L
8G\J
8G\
8r
16c\LL
16A\J
8A\J
=10
8c\L
8c\J
8c\L
8c\J
8A\L
8A\J
=11
8c\L
16c\L
16c\JJ
8c\L
8c\J
8A\L
8A\J
=12
8c\L
16c\L
16c\JJ
8c\L
8c\J
8A\L
8A\J
=13
16c\LL
16c\J
8c\J
8c\L
8c\J
8c\L
16A\Jk
16r
=14
8c\L
16c\L
16c\JJ
8c\L
8c\J
8c\L
8c\J
=15
*M3/8
8r
8A\L
8A\J
=16
*M2/4
8c\L
8c\J
8c\L
16.c\L
32d\JJk
=17
*M3/4
8d\L
8A\J
4A\
8A\L
8A\J
=18
8c\L
8c\J
8c\
8r
16c\LL
16A\J
8A\J
=19
8c\L
8c\J
8c\L
8c\J
8A\L
8A\J
=20
8c\L
8c\J
8c\L
8c\J
16e\LL
16d\
16d\
16c\JJ
=21
16e\LL
16d\J
8c\J
8c\L
8c\J
8A\L
8A\J
=22
8A\L
8G\J
8G\
8r
4r
==
*-
